!!!COM: d'Indy
!!!CNT: Francais
!!!TXO: Francais
!!!OTL: Madrigal (dans le style ancien)
!!!LYR: Bonnie\res
!!!OPR: 
!!!OPS: Op. 4
!!!ONM: 
!!!ENC: Ben Fuhrman
!!!YOR: Paris, J. Hamelle, 1885
!!!YOR: IMSLP, http://imslp.org/wiki/Madrigal,_Op.4_%28Indy,_Vincent_d%27%29
!!!ODT: 1872
!!NB: Only vocal melody encoded.
!!NB: First instance of melodic material only encoded.
!!created: 2/24/10 2:35PM
!!proofed and posted: 2/24/10 2:35PM
**kern	**silbe
*clef G2	*
*k[]	*
*M2/4	*
*MM[Moderato]	*
=1	=1
{4e	{Qui
8a	ja-
8cc	-mais
=2	=2
4cc	fut
4b	de
=3	=3
8a	plus
8a	char-
8.g	-mant
16g	vi-
=4	=4
4e	-sa-
4e}	-ge,}
=5	=5
8r	.
{8e	{de
8a	col
8cc	plus
=6	=6
4cc	blanc,
8b	de
8b	che-
=7	=7
4a	-veux
8.g	plus
16g	soy-
=8	=8
[4e	-eux;
8e]}	|}
8r	.
=9	=9
{4ee	{Qui
8ee	ja-
8ee	-mai
=10	=10
4.ee	fut
8a	de
=11	=11
8a	plus
8f	gen-
8a	-til
8dd	cor-
=12	=12
4dd	-sa-
4g}	-ge.}
=13	=13
{4e	{Qui
8g	ja-
8cc	-mais
=14	=14
4cc	fut
8b	que
8a	ma
=15	=15
4a	Dame
8.cc	aux
16cc	doux
=16	=16
2cc}	yeux!}
!! Rest to measure 20
=20	=20
{4e	{Qui
8a	ja-
8cc	-mais
=21	=21
4cc	eut
[4b	le\-
=22	=22
8b]	|
8a	-vers
8g	plus
16f	sou-
16g	-ri-
=23	=23
4e	-an-
4e}	-tes,}
=24	=24
{4e	{Qui
8a	sou-
8cc	-ri-
=25	=25
4cc	-ant
8b	ren-
8b	-dit
=26	=26
4a	coeur
8.g	plus
16g	joy-
=27	=27
[4e	-eux,
8e]}	|}
8r	.
=28	=28
{4ee	{Plus
8ee	cha-
8ee	-ste
=29	=29
4.ee	sein
8a	sous
=30	=30
8a	guim-
8f	-pes
8a	trans-
8dd	-pa-
=31	=31
4dd	-ren-
8g}	-tes,}
8r	.
=32	=32
{4e	{Qui
8g	ja-
8cc	-mais
=33	=33
4cc	eut
8b	que
8a	ma
=34	=34
4a	Dame
8.cc	aux
16cc	doux
=35	=35
2cc}	yeux!}
!! Rest to measure 39
=39	=39
{4e	{Qui
8a	ja-
8cc	-mais
=40	=40
4cc	eut
4b	voix
=41	=41
8a	d'un
8a	plus
8.g	doux
16g	en-
=42	=42
4e	-ten-
4e}	-dre,}
=43	=43
8r	.
{8e	{Mi-
8.a	-gnon-
16cc	-nes
=44	=44
4cc	dents
4b	qui
=45	=45
8a	bouche
8a	em-
8.g	-per-
16g	-lent
=46	=46
[4e	mieux;
8e]}	|}
8r	.
=47	=47
{4ee	{Qui
8ee	ja-
8ee	-mais
=48	=48
4.ee	fut
8a	de
=49	=49
8a	re-
8f	-gar-
8.a	-der
16dd	si
=50	=50
4dd	ten-
4g}	-dre,}
=51	=51
{4e	{Qui
8g	ja-
8cc	-mais
=52	=52
4cc	fut
8b	que
8a	ma
=53	=53
4a	Dame
8.gT	aux
16a	eux
=54	=54
4a}	yeux,}
8r	.
{8a	{Ma
=55	=55
4a	Dame
8.a	aux
16a	doux
=56	=56
[2ee	yeux!
=57	=57
4ee]}	|}
4r	.
==	==
*-	*-
